!!!COM: Fux, Johann Joseph
!!!OMD: Gradus ad Parnassum Exercise
!!!YEC: CC0 1.0 Universal (Public Domain). Mark Gotham and FourScoreAndMore.org waive all rights to this document.
**kern	**kern
*part2	*part1
*staff2	*staff1
*I"2	*I"1
*I'Pno	*I'Pno
!!LO:LB:g=z
*clefGv2	*clefG2
*k[]	*k[]
!!LO:TX:omd:t=
*M2/2	*M2/2
=43	=43
!	!LO:TX:a:t=Fig. 13; Species&colon; 1; Modal final&colon; f; Cantus firmus&colon; Lower
1F	1f
=44	=44
1G	1e
=45	=45
1A	1c
=46	=46
1F	1f
=47	=47
1D	1f
=48	=48
1E	1g
=49	=49
1F	1a
=50	=50
1c	1g
=51	=51
1A	1c
=52	=52
1F	1f
=53	=53
1G	1e
=54	=54
1F	1f
==	==
*-	*-
!!!software: music21 v.9.7.1
!!!software: music21 v.9.7.1
!!!software: MuseScore 3.4.2
!!!RDF**kern: > = above
!!!RDF**kern: < = below
